!!!COM: Music21
!!!OTL: polka_Stonewaller--The
!!!OMV: polka_Stonewaller--The
**kern
*clefG2
*k[f#]
*e:
*M2/4
=1
16bLL
16dd
16ee
16bJJ
=
8aL
16bL
16ddJJ
4ryy
=
16eeLL
16bJ
8aJ
4ryy
=
16aLL
16gJ
8eJ
4ryy
=
16bLL
16dd
16ee
16bJJ
4ryy
=
8aL
16bL
16aJJ
4ryy
=
16gLL
16a
16a
16gJJ
4ryy
=
8aL
8aJ
4ryy
!!linebreak:original
=
16bLL
16dd
16ee
16bJJ
4ryy
=
8aL
16bL
16ddJJ
4ryy
=
16eeLL
16bJ
8aJ
4ryy
=
16aLL
16gJ
8eJ
4ryy
=
16eeLL
16aa
16aa
16eeJJ
4ryy
=
16ggLL
16ee
16dd
16aaJJ
4ryy
=
16aaLL
16ee
16gg
16eeJJ
4ryy
=
16ddLL
16b
16a
16gJJ
4ryy
!!linebreak:original
=||
*M2/4
16bLL
16dd
16ee
16bJJ
=
8aL
16bL
16ddJJ
4ryy
=
16eeLL
16bJ
8aJ
4ryy
=
16aLL
16gJ
8eJ
4ryy
=
16bLL
16dd
16ee
16bJJ
4ryy
=
8aL
16bL
16aJJ
4ryy
=
16gLL
16a
16a
16gJJ
4ryy
=
8aL
8aJ
4ryy
!!linebreak:original
=
16bLL
16dd
16ee
16bJJ
4ryy
=
8aL
16bL
16ddJJ
4ryy
=
16eeLL
16bJ
8aJ
4ryy
=
16aLL
16gJ
8eJ
4ryy
=
16eeLL
16aa
16aa
16eeJJ
4ryy
=
16ggLL
16ee
16dd
16aaJJ
4ryy
=
16aaLL
16ee
16gg
16eeJJ
4ryy
=
16ddLL
16b
16a
16gJJ
4ryy
!!linebreak:original
=||
16eeLL
16ggJ
8ggJ
4ryy
=
16ggLL
16ee
16dd
16bJJ
4ryy
=
8gL
16aL
16gJJ
4ryy
=
16gLL
16a
16b
16gJJ
4ryy
=
16eeLL
16gg
16gg
16ff#JJ
4ryy
=
16ggLL
16ee
16dd
16bJJ
4ryy
=
16gLL
16a
16a
16gJJ
4ryy
=
8aL
8aJ
4ryy
!!linebreak:original
=
16eeLL
16gg
16gg
16ff#JJ
4ryy
=
16ggLL
16ee
16dd
16bJJ
4ryy
=
16gLL
16a
16a
16gJJ
4ryy
=
16gLL
16a
16b
16gJJ
4ryy
=
16eeLL
16aa
16aa
16eeJJ
4ryy
=
16ggLL
16ee
16dd
16aaJJ
4ryy
=
16aaLL
16ee
16gg
16eeJJ
4ryy
=
16ddLL
16b
16a
16gJJ
4ryy
!!linebreak:original
=||
16eeLL
16ggJ
8ggJ
4ryy
=
16ggLL
16ee
16dd
16bJJ
4ryy
=
8gL
16aL
16gJJ
4ryy
=
16gLL
16a
16b
16gJJ
4ryy
=
16eeLL
16gg
16gg
16ff#JJ
4ryy
=
16ggLL
16ee
16dd
16bJJ
4ryy
=
16gLL
16a
16a
16gJJ
4ryy
=
8aL
8aJ
4ryy
!!linebreak:original
=
16eeLL
16gg
16gg
16ff#JJ
4ryy
=
16ggLL
16ee
16dd
16bJJ
4ryy
=
16gLL
16a
16a
16gJJ
4ryy
=
16gLL
16a
16b
16gJJ
4ryy
=
16eeLL
16aa
16aa
16eeJJ
4ryy
=
16ggLL
16ee
16dd
16aaJJ
4ryy
=
16aaLL
16ee
16gg
16eeJJ
4ryy
=
16ddLL
16b
16a
16gJJ
4ryy
=||
*-
